X:7527
T:Il tait un p'tit bonhomme
R:Rondanse
A:Normandie
O:France
M:6/8
Q:1/4=180
K:C
C2 E|G2 GG2 G|G2 GG2 G|G2 G GEC|D3 C2E|G2 GG2 G|G2 GC2 D|
E2 FE2D|C2 z C2E|G2 GG2 G|G2 GG2 G|G2 G GEC|D3 C2 E|G2 GG2 G|
G2 G C2D|E2 FE2D|C2 z C2E|G2 G A2A|G2 z C2E|G2 G A2A|G4||
W:Il tait un p'tit bonhomme
W:Tim la tim la ti-im lala
W:Il tait un p'tit bonhomme
W:Qui n'tait pas plus haut qu'
W:N'tait gure plus haut qu'une pomme
W:Tim la tim la ti-im lala
W:N'tait gure plus haut qu'une pomme
W:Pour mari on m'le donna
W:Pour mari on m'le donna
W:Pour mari on m'le donna.
